flaticon/constructions/electricity.svg

<svg xmlns="http://www.w3.org/2000/svg" width="32" height="32" viewBox="0 0 24 24">
    <path d="M 15.601562 9.601562 L 13.160156 9.601562 L 15.558594 5.800781 C 15.640625 5.679688 15.640625 5.519531 15.558594 5.398438 C 15.480469 5.28125 15.359375 5.199219 15.199219 5.199219 L 12 5.199219 C 11.839844 5.199219 11.71875 5.28125 11.640625 5.398438 L 8.039062 11.800781 C 7.960938 11.921875 7.960938 12.078125 8.039062 12.199219 C 8.121094 12.320312 8.238281 12.398438 8.398438 12.398438 L 10.480469 12.398438 L 8.039062 18.28125 C 7.960938 18.441406 8.039062 18.640625 8.199219 18.761719 C 8.238281 18.800781 8.320312 18.800781 8.398438 18.800781 C 8.519531 18.800781 8.640625 18.761719 8.71875 18.679688 L 15.921875 10.28125 C 16 10.160156 16.039062 10 15.960938 9.839844 C 15.878906 9.679688 15.761719 9.601562 15.601562 9.601562 Z M 9.71875 16.199219 L 11.398438 12.121094 C 11.441406 12 11.441406 11.878906 11.359375 11.761719 C 11.28125 11.679688 11.160156 11.601562 11.039062 11.601562 L 9.078125 11.601562 L 12.199219 6 L 14.441406 6 L 12.039062 9.800781 C 11.960938 9.921875 11.960938 10.078125 12.039062 10.199219 C 12.121094 10.320312 12.238281 10.398438 12.398438 10.398438 L 14.71875 10.398438 Z M 9.71875 16.199219"/>
    <path d="M 21.601562 0 L 2.398438 0 C 1.078125 0 0 1.078125 0 2.398438 L 0 21.601562 C 0 22.921875 1.078125 24 2.398438 24 L 21.601562 24 C 22.921875 24 24 22.921875 24 21.601562 L 24 2.398438 C 24 1.078125 22.921875 0 21.601562 0 Z M 23.199219 21.601562 C 23.199219 22.480469 22.480469 23.199219 21.601562 23.199219 L 2.398438 23.199219 C 1.519531 23.199219 0.800781 22.480469 0.800781 21.601562 L 0.800781 2.398438 C 0.800781 1.519531 1.519531 0.800781 2.398438 0.800781 L 21.601562 0.800781 C 22.480469 0.800781 23.199219 1.519531 23.199219 2.398438 Z M 23.199219 21.601562"/>
    <path d="M12 2.398438C6.71875 2.398438 2.398438 6.71875 2.398438 12 2.398438 17.28125 6.71875 21.601562 12 21.601562 17.28125 21.601562 21.601562 17.28125 21.601562 12 21.601562 6.71875 17.28125 2.398438 12 2.398438zM12 20.800781C7.160156 20.800781 3.199219 16.839844 3.199219 12 3.199219 7.160156 7.160156 3.199219 12 3.199219 16.839844 3.199219 20.800781 7.160156 20.800781 12 20.800781 16.839844 16.839844 20.800781 12 20.800781zM2.398438 3.199219C2.839844 3.199219 3.199219 2.839844 3.199219 2.398438 3.199219 1.960938 2.839844 1.601562 2.398438 1.601562 1.960938 1.601562 1.601562 1.960938 1.601562 2.398438 1.601562 2.839844 1.960938 3.199219 2.398438 3.199219zM2.398438 20.800781C1.960938 20.800781 1.601562 21.160156 1.601562 21.601562 1.601562 22.039062 1.960938 22.398438 2.398438 22.398438 2.839844 22.398438 3.199219 22.039062 3.199219 21.601562 3.199219 21.160156 2.839844 20.800781 2.398438 20.800781zM21.601562 1.601562C21.160156 1.601562 20.800781 1.960938 20.800781 2.398438 20.800781 2.839844 21.160156 3.199219 21.601562 3.199219 22.039062 3.199219 22.398438 2.839844 22.398438 2.398438 22.398438 1.960938 22.039062 1.601562 21.601562 1.601562zM21.601562 20.800781C21.160156 20.800781 20.800781 21.160156 20.800781 21.601562 20.800781 22.039062 21.160156 22.398438 21.601562 22.398438 22.039062 22.398438 22.398438 22.039062 22.398438 21.601562 22.398438 21.160156 22.039062 20.800781 21.601562 20.800781zM21.601562 20.800781"/>
</svg>

<svg xmlns="http://www.w3.org/2000/svg" width="32" height="32" viewBox="0 0 24 24">
    <path d="M15.602 9.602H13.16L15.56 5.8a.36.36 0 0 0 0-.403.422.422 0 0 0-.36-.199H12a.422.422 0 0 0-.36.2L8.04 11.8a.368.368 0 0 0 0 .398c.081.121.198.2.358.2h2.082L8.04 18.28c-.08.16 0 .36.16.48.038.04.12.04.198.04.122 0 .243-.04.32-.121l7.204-8.399a.44.44 0 0 0 .039-.441c-.082-.16-.2-.238-.36-.238zm-5.883 6.597l1.68-4.078a.373.373 0 0 0-.04-.36c-.078-.081-.199-.16-.32-.16H9.08L12.198 6h2.242L12.04 9.8a.368.368 0 0 0 0 .4c.082.12.2.198.36.198h2.32zm0 0"/>
    <path d="M21.602 0H2.398A2.404 2.404 0 0 0 0 2.398v19.204A2.404 2.404 0 0 0 2.398 24h19.204A2.404 2.404 0 0 0 24 21.602V2.398A2.404 2.404 0 0 0 21.602 0zm1.597 21.602c0 .878-.719 1.597-1.597 1.597H2.398a1.602 1.602 0 0 1-1.597-1.597V2.398C.8 1.52 1.52.801 2.398.801h19.204c.878 0 1.597.719 1.597 1.597zm0 0"/>
    <path d="M12 2.398c-5.281 0-9.602 4.32-9.602 9.602 0 5.281 4.32 9.602 9.602 9.602 5.281 0 9.602-4.32 9.602-9.602 0-5.281-4.32-9.602-9.602-9.602zm0 18.403C7.16 20.8 3.2 16.84 3.2 12S7.16 3.2 12 3.2c4.84 0 8.8 3.96 8.8 8.8 0 4.84-3.96 8.8-8.8 8.8zm0 0M2.398 3.2c.442 0 .801-.36.801-.802a.801.801 0 0 0-.8-.796.8.8 0 0 0-.797.796c0 .442.359.801.796.801zm0 0M2.398 20.8a.801.801 0 0 0-.796.802.8.8 0 0 0 .796.796c.442 0 .801-.359.801-.796 0-.442-.36-.801-.8-.801zm0 0M21.602 1.602c-.442 0-.801.359-.801.796 0 .442.36.801.8.801.438 0 .797-.36.797-.8a.8.8 0 0 0-.796-.797zm0 0M21.602 20.8c-.442 0-.801.36-.801.802 0 .437.36.796.8.796a.8.8 0 0 0 .797-.796c0-.442-.359-.801-.796-.801zm0 0"/>
</svg>
